packages/core/src/svgs/let.svg

<svg width="24" height="24" viewBox="0 0 24 24" fill="none" xmlns="http://www.w3.org/2000/svg">
<g clip-path="url(#clip0_31_13105)">
<path d="M0 0H24V24H0V0Z" fill="#106BBE"/>
<path d="M14.8985 18.2166C13.991 18.6401 13.0015 18.8588 12.0001 18.8574C10.9535 18.8574 9.96177 18.6229 9.07463 18.2038C9.54177 18.2711 10.0891 18.2865 10.5982 18.2745C11.2222 18.2595 11.7931 18.2034 12.0956 18.1489C12.8593 18.2741 13.9321 18.3049 14.8985 18.2166ZM15.1213 18.1074C14.1982 18.2128 13.1413 18.2016 12.3429 18.0988C13.7435 17.7774 15.8272 16.7342 17.1729 14.6642C17.1926 14.6764 17.2145 14.6845 17.2373 14.6882C17.2601 14.6919 17.2834 14.6911 17.3059 14.6858C17.3284 14.6805 17.3497 14.6708 17.3684 14.6573C17.3872 14.6438 17.4031 14.6267 17.4153 14.607C17.4274 14.5873 17.4356 14.5655 17.4393 14.5426C17.443 14.5198 17.4422 14.4965 17.4369 14.474C17.4315 14.4515 17.4219 14.4302 17.4083 14.4115C17.3948 14.3927 17.3777 14.3768 17.3581 14.3646C17.8775 13.4805 18.2628 12.4232 18.4179 11.1718C18.5962 11.7054 18.7273 12.2826 18.7959 12.9049H18.7981C18.4981 15.1794 17.0838 17.1024 15.1209 18.1078L15.1213 18.1074ZM12.0952 18.0619C13.4752 17.8112 15.7051 16.7771 17.1116 14.5999C17.0966 14.5731 17.089 14.5429 17.0893 14.5121C17.0897 14.4814 17.0981 14.4514 17.1137 14.4249C17.1293 14.3985 17.1516 14.3766 17.1783 14.3614C17.205 14.3462 17.2352 14.3383 17.2659 14.3385H17.2732C17.8162 13.4192 18.2135 12.3092 18.3523 10.9849C18.2408 10.6765 18.1104 10.3752 17.9619 10.0828C17.9307 10.0821 17.9003 10.0731 17.8737 10.0567C17.8472 10.0404 17.8255 10.0172 17.8108 9.9897C17.7961 9.96217 17.7891 9.93123 17.7903 9.90006C17.7916 9.8689 17.8011 9.83862 17.8179 9.81236C16.6531 7.72007 14.7712 6.53293 13.6282 6.13521C13.6079 6.15744 13.5822 6.17408 13.5536 6.18352C13.525 6.19296 13.4944 6.19489 13.4649 6.18912C13.4353 6.18335 13.4077 6.17009 13.3848 6.15059C13.3618 6.13109 13.3443 6.10602 13.3338 6.07778C11.9495 6.03621 9.78349 6.4605 8.03534 7.96993C8.04899 8.00336 8.05201 8.04019 8.04398 8.07539C8.03595 8.1106 8.01727 8.14248 7.99049 8.16669C7.9637 8.19091 7.9301 8.20628 7.89426 8.21072C7.85842 8.21516 7.82209 8.20845 7.7902 8.1915C6.99434 8.94407 6.30177 9.93921 5.8342 11.2395C5.84769 11.2603 5.8566 11.2838 5.86036 11.3083C5.86411 11.3328 5.86262 11.3578 5.85597 11.3817C5.84933 11.4056 5.83769 11.4279 5.82182 11.4469C5.80595 11.466 5.78621 11.4815 5.76392 11.4924C6.02749 13.1736 7.1482 15.8449 9.70934 17.2489C9.73546 17.2207 9.77011 17.2019 9.80797 17.1953C9.84583 17.1886 9.88482 17.1946 9.91896 17.2123C9.9531 17.2299 9.98051 17.2583 9.99699 17.293C10.0135 17.3277 10.0181 17.3669 10.0102 17.4045C10.6252 17.7045 11.3178 17.9329 12.0952 18.0619ZM7.9852 7.9005C7.95273 7.87297 7.91136 7.85816 7.86879 7.85884C7.82622 7.85951 7.78534 7.87562 7.75375 7.90417C7.72217 7.93272 7.70202 7.97176 7.69706 8.01405C7.69209 8.05634 7.70265 8.09899 7.72677 8.13407C6.93092 8.8875 6.23749 9.88178 5.76606 11.1774C5.75118 11.1699 5.7353 11.1645 5.71892 11.1615C5.66663 10.6661 5.63149 9.81793 5.75749 9.16093H5.75663C6.47464 7.58738 7.75885 6.34189 9.35363 5.67236L9.35406 5.67536C9.73249 5.62607 10.4109 5.5905 11.1699 5.6355C11.8393 5.67536 12.5688 5.77821 13.2091 5.9895C11.8081 5.97664 9.69906 6.42364 7.98477 7.90007L7.9852 7.9005ZM5.62463 9.47078C5.55692 10.0704 5.58906 10.7432 5.63363 11.1662C5.59616 11.1779 5.56366 11.2018 5.5413 11.234C5.51895 11.2663 5.50801 11.3051 5.51022 11.3443C5.51244 11.3835 5.52768 11.4208 5.55353 11.4504C5.57939 11.4799 5.61436 11.5 5.65292 11.5074C5.48097 12.0613 5.34539 12.626 5.24706 13.1976C5.02671 11.9443 5.15766 10.6545 5.62463 9.47078ZM9.66777 17.3239C9.66064 17.35 9.65964 17.3775 9.66485 17.404C9.67006 17.4306 9.68134 17.4556 9.69782 17.4771C9.71429 17.4986 9.7355 17.516 9.7598 17.5279C9.78411 17.5399 9.81084 17.546 9.83792 17.5459C9.8638 17.5459 9.88936 17.5402 9.91277 17.5291C9.93618 17.5181 9.95687 17.502 9.97334 17.4821C10.5292 17.7529 11.1476 17.9664 11.8333 18.1018C11.5183 18.1416 11.0735 18.1772 10.5961 18.1888C9.98106 18.2034 9.31592 18.1772 8.80677 18.0701C7.91892 17.6022 7.14439 16.9454 6.53768 16.1459C5.93096 15.3465 5.50681 14.4238 5.29506 13.4428C5.38077 12.8599 5.54063 12.1648 5.7022 11.6376C6.00434 13.3395 7.14349 15.9401 9.66777 17.3239ZM18.8358 12.5471C18.9112 11.6132 18.7942 10.6739 18.4921 9.78707C18.4978 10.1834 18.4806 10.5798 18.4406 10.9742C18.6151 11.4611 18.7509 11.9852 18.8358 12.5471ZM18.4003 9.53421C17.9611 8.39763 17.2276 7.39822 16.2751 6.63836C15.8791 6.45021 15.3189 6.31607 14.7858 6.22693C14.4557 6.17162 14.1234 6.13015 13.7898 6.10264C14.9533 6.5475 16.7495 7.72907 17.8826 9.75193C17.903 9.74107 17.9254 9.73433 17.9484 9.7321C17.9714 9.72987 17.9946 9.7322 18.0167 9.73894C18.0388 9.74569 18.0594 9.75672 18.0772 9.77141C18.0951 9.78611 18.1098 9.80417 18.1207 9.82457C18.1316 9.84497 18.1383 9.86731 18.1405 9.89032C18.1428 9.91332 18.1404 9.93654 18.1337 9.95865C18.1269 9.98076 18.1159 10.0013 18.1012 10.0192C18.0865 10.037 18.0685 10.0518 18.0481 10.0626C18.1655 10.2949 18.2739 10.5371 18.3716 10.7899C18.4055 10.3905 18.4158 9.97178 18.4003 9.53421ZM16.0106 6.43778C15.6472 6.30836 15.2135 6.2115 14.7999 6.14207C14.4273 6.07958 14.0518 6.03496 13.6749 6.00836C13.6736 5.96855 13.6589 5.93036 13.633 5.90005C13.6072 5.86974 13.5718 5.8491 13.5327 5.84153C13.4936 5.83396 13.4531 5.8399 13.4178 5.85837C13.3825 5.87685 13.3545 5.90676 13.3385 5.94321C12.6639 5.70493 11.8839 5.59221 11.1751 5.54978C10.6638 5.51883 10.1511 5.52227 9.64034 5.56007C10.3963 5.28336 11.1951 5.1422 12.0001 5.14307C13.4975 5.14307 14.8831 5.6235 16.0106 6.43778ZM17.1429 12.0002C17.1429 14.8404 14.8402 17.1431 12.0001 17.1431C9.15992 17.1431 6.8572 14.8404 6.8572 12.0002C6.8572 9.16007 9.15992 6.85736 12.0001 6.85736C14.8402 6.85736 17.1429 9.16007 17.1429 12.0002Z" fill="white"/>
<path fill-rule="evenodd" clip-rule="evenodd" d="M12 14.5716C12.3377 14.5716 12.6721 14.5051 12.9841 14.3758C13.296 14.2466 13.5795 14.0572 13.8183 13.8184C14.0571 13.5796 14.2465 13.2962 14.3757 12.9842C14.5049 12.6722 14.5714 12.3378 14.5714 12.0001C14.5714 11.6625 14.5049 11.3281 14.3757 11.0161C14.2465 10.7041 14.0571 10.4206 13.8183 10.1819C13.5795 9.94309 13.296 9.75368 12.9841 9.62445C12.6721 9.49522 12.3377 9.42871 12 9.42871C11.318 9.42871 10.664 9.69963 10.1817 10.1819C9.69951 10.6641 9.42859 11.3182 9.42859 12.0001C9.42859 12.6821 9.69951 13.3362 10.1817 13.8184C10.664 14.3007 11.318 14.5716 12 14.5716ZM11.3572 11.5716C11.5277 11.5716 11.6912 11.5038 11.8117 11.3833C11.9323 11.2627 12 11.0992 12 10.9287C12 10.7582 11.9323 10.5947 11.8117 10.4741C11.6912 10.3536 11.5277 10.2859 11.3572 10.2859C11.1867 10.2859 11.0232 10.3536 10.9026 10.4741C10.782 10.5947 10.7143 10.7582 10.7143 10.9287C10.7143 11.0992 10.782 11.2627 10.9026 11.3833C11.0232 11.5038 11.1867 11.5716 11.3572 11.5716Z" fill="white"/>
</g>
<defs>
<clipPath id="clip0_31_13105">
<rect width="24" height="24" fill="white"/>
</clipPath>
</defs>
</svg>

<svg xmlns="http://www.w3.org/2000/svg" width="24" height="24" fill="none" viewBox="0 0 24 24"><g clip-path="url(#a)"><path fill="#106BBE" d="M0 0h24v24H0z"/><path fill="#fff" d="M14.899 18.217a6.8 6.8 0 0 1-2.899.64 6.8 6.8 0 0 1-2.925-.653 9.6 9.6 0 0 0 1.523.07 11 11 0 0 0 1.498-.125c.763.125 1.836.156 2.803.068m.222-.11c-.923.106-1.98.095-2.778-.008 1.4-.322 3.484-1.365 4.83-3.435a.176.176 0 0 0 .185-.3c.52-.884.905-1.94 1.06-3.192.178.533.31 1.11.378 1.733h.002a6.86 6.86 0 0 1-3.677 5.203m-3.026-.045c1.38-.25 3.61-1.285 5.017-3.462a.176.176 0 0 1 .154-.261h.007c.543-.92.94-2.03 1.08-3.354a8 8 0 0 0-.391-.902.175.175 0 0 1-.144-.27c-1.165-2.093-3.047-3.28-4.19-3.678a.176.176 0 0 1-.294-.057c-1.384-.042-3.55.382-5.299 1.892a.176.176 0 0 1-.245.221c-.796.753-1.488 1.748-1.956 3.048a.175.175 0 0 1-.07.253c.263 1.682 1.384 4.353 3.945 5.757a.175.175 0 0 1 .301.155c.615.3 1.308.529 2.085.658M7.985 7.9a.176.176 0 0 0-.258.233c-.796.753-1.49 1.748-1.96 3.043a.2.2 0 0 0-.048-.015c-.052-.496-.088-1.344.038-2.001a6.88 6.88 0 0 1 3.597-3.489v.003c.378-.049 1.057-.085 1.816-.04.67.04 1.399.143 2.04.354-1.402-.012-3.51.435-5.225 1.911m-2.36 1.57c-.068.6-.036 1.272.009 1.695a.177.177 0 0 0 .019.341 13 13 0 0 0-.406 1.69 6.9 6.9 0 0 1 .378-3.726m4.043 7.853a.176.176 0 0 0 .305.158c.556.27 1.175.484 1.86.62-.315.04-.76.075-1.237.087-.615.014-1.28-.012-1.79-.119a6.87 6.87 0 0 1-3.51-4.627c.085-.583.245-1.278.406-1.805.302 1.701 1.441 4.302 3.966 5.686m9.168-4.777a6.85 6.85 0 0 0-.344-2.76q.009.595-.051 1.187c.174.487.31 1.011.395 1.573M18.4 9.534a6.9 6.9 0 0 0-2.125-2.896c-.396-.188-.956-.322-1.49-.411a12 12 0 0 0-.995-.124c1.163.445 2.96 1.626 4.093 3.649a.176.176 0 0 1 .165.31q.177.349.324.728.052-.6.028-1.256m-2.39-3.096a7.4 7.4 0 0 0-1.21-.296 12 12 0 0 0-1.125-.134.175.175 0 0 0-.337-.065c-.674-.238-1.454-.35-2.163-.393a11.4 11.4 0 0 0-1.535.01A6.8 6.8 0 0 1 12 5.143c1.498 0 2.883.48 4.01 1.295M17.144 12a5.143 5.143 0 1 1-10.286 0 5.143 5.143 0 0 1 10.286 0"/><path fill="#fff" fill-rule="evenodd" d="M12 14.572a2.57 2.57 0 1 0 0-5.141 2.57 2.57 0 0 0 0 5.14m-.643-3a.643.643 0 1 0 0-1.286.643.643 0 0 0 0 1.286" clip-rule="evenodd"/></g><defs><clipPath id="a"><path fill="#fff" d="M0 0h24v24H0z"/></clipPath></defs></svg>
